icon/ir/page-star.svg

<svg stroke-width="1.5" viewBox="0 0 24 24" fill="none" xmlns="http://www.w3.org/2000/svg" height="1em" width="1em">
  <path d="M20 12V5.74853C20 5.5894 19.9368 5.43679 19.8243 5.32426L16.6757 2.17574C16.5632 2.06321 16.4106 2 16.2515 2H4.6C4.26863 2 4 2.26863 4 2.6V21.4C4 21.7314 4.26863 22 4.6 22H11" stroke="currentColor" stroke-linecap="round" stroke-linejoin="round"/>
  <path d="M8 10H16M8 6H12M8 14H11" stroke="currentColor" stroke-linecap="round" stroke-linejoin="round"/>
  <path d="M16 5.4V2.35355C16 2.15829 16.1583 2 16.3536 2C16.4473 2 16.5372 2.03725 16.6036 2.10355L19.8964 5.39645C19.9628 5.46275 20 5.55268 20 5.64645C20 5.84171 19.8417 6 19.6464 6H16.6C16.2686 6 16 5.73137 16 5.4Z" fill="currentColor" stroke="currentColor" stroke-linecap="round" stroke-linejoin="round"/>
  <path d="M16.3056 17.1133L17.2147 15.1856C17.3314 14.9381 17.6686 14.9381 17.7853 15.1856L18.6944 17.1133L20.7275 17.4243C20.9884 17.4642 21.0923 17.7998 20.9035 17.9923L19.4326 19.4917L19.7797 21.61C19.8243 21.882 19.5515 22.0895 19.3181 21.961L17.5 20.9603L15.6819 21.961C15.4485 22.0895 15.1757 21.882 15.2203 21.61L15.5674 19.4917L14.0965 17.9923C13.9077 17.7998 14.0116 17.4642 14.2725 17.4243L16.3056 17.1133Z" stroke="currentColor" stroke-linecap="round" stroke-linejoin="round"/>
</svg>

<svg width="24" height="24" stroke-width="1.5" fill="none" xmlns="http://www.w3.org/2000/svg"><path d="M20 12V5.749a.6.6 0 0 0-.176-.425l-3.148-3.148A.6.6 0 0 0 16.252 2H4.6a.6.6 0 0 0-.6.6v18.8a.6.6 0 0 0 .6.6H11M8 10h8M8 6h4m-4 8h3" stroke="currentColor" stroke-linecap="round" stroke-linejoin="round"/><path d="M16 5.4V2.354a.354.354 0 0 1 .604-.25l3.292 3.292a.353.353 0 0 1-.25.604H16.6a.6.6 0 0 1-.6-.6Z" fill="currentColor" stroke="currentColor" stroke-linecap="round" stroke-linejoin="round"/><path d="m16.306 17.113.909-1.927a.312.312 0 0 1 .57 0l.91 1.927 2.032.311c.261.04.365.376.177.568l-1.471 1.5.347 2.118c.044.272-.229.48-.462.351l-1.818-1-1.818 1c-.234.129-.506-.079-.462-.351l.347-2.118-1.47-1.5c-.19-.192-.085-.528.176-.568l2.033-.31Z" stroke="currentColor" stroke-linecap="round" stroke-linejoin="round"/></svg>
